static/img/clients/ki.svg

<svg fill="none" height="79" viewBox="0 0 171 79" width="171" xmlns="http://www.w3.org/2000/svg"><g fill="#fff"><path d="m96.5503 30.0886h.8996v4.0881h2.5388v.7647h-3.4384z"/><path d="m102.986 33.2272v1.7142h-.904v-1.6993l-1.904-3.1535h.964l1.42 2.3639 1.434-2.3639h.885z"/><path d="m109.933 32.5223c0-.9896-.729-1.7042-1.704-1.7042s-1.704.7146-1.704 1.7042c0 .9895.729 1.7042 1.704 1.7042s1.704-.7147 1.704-1.7042zm-4.318 0c0-1.4344 1.11-2.4939 2.614-2.4939s2.614 1.0545 2.614 2.4939c0 1.4393-1.11 2.4938-2.614 2.4938s-2.614-1.0595-2.614-2.4938z"/><path d="m116.805 30.0886v4.8528h-.739l-2.679-3.2835v3.2835h-.895v-4.8528h.745l2.674 3.2885v-3.2885z"/><path d="m121.039 32.833c0-.4348.339-.7496.739-.7496s.75.3098.75.7496-.345.7547-.75.7547-.739-.3099-.739-.7547z"/><path d="m130.194 31.8178c0-.6097-.41-.9645-1.2-.9645h-1.054v1.9291h1.054c.79 0 1.2-.3549 1.2-.9646zm.91 0c0 1.0695-.79 1.7242-2.065 1.7242h-1.094v1.3994h-.9v-4.8528h1.999c1.275 0 2.065.6497 2.065 1.7242"/><path d="m135.302 33.1122-.915-2.119-.909 2.119zm.3.7047h-2.424l-.48 1.1245h-.929l2.184-4.8528h.884l2.189 4.8528h-.944l-.485-1.1245z"/><path d="m140.299 30.8533h-1.054v1.9341h1.054c.79 0 1.2-.3599 1.2-.9696s-.41-.9645-1.2-.9645zm1.22 4.0881-.99-1.4194c-.06.005-.125.005-.185.005h-1.094v1.4144h-.9v-4.8528h1.994c1.275 0 2.064.6497 2.064 1.7242 0 .7347-.375 1.2744-1.034 1.5343l1.114 1.5943z"/><path d="m145.022 30.8533h-1.609v-.7647h4.118v.7647h-1.609v4.0881h-.9z"/><path d="m150.295 32.6547h-1.904v.7196h1.904z"/><path d="m154.108 34.1798c1.079 0 1.779-.6597 1.779-1.6643 0-1.0045-.7-1.6642-1.779-1.6642h-1.18v3.3285zm-2.079-4.0881h2.119c1.574 0 2.649.9695 2.649 2.4238 0 1.4544-1.075 2.4239-2.649 2.4239h-2.119v-4.8527z"/><path d="m159.351 30.0886h-.9v4.8528h.9z"/><path d="m164.993 34.1867v.7547h-3.639v-4.8528h3.544v.7547h-2.644v1.2644h2.344v.7396h-2.344v1.3394z"/><path d="m166.652 32.8273v-2.7387h.899v2.7038c0 .9995.45 1.4293 1.235 1.4293s1.229-.4298 1.229-1.4293v-2.7038h.89v2.7387c0 1.4144-.8 2.184-2.124 2.184-1.325 0-2.129-.7696-2.129-2.184z"/><path d="m42.2052 61.3863c-11.7844 0-21.9947-6.8568-26.8574-16.7922h53.7099c-4.8627 9.9354-15.073 16.7922-26.8574 16.7922m-29.8761-29.881c0-16.4773 13.4038-29.88106 29.881-29.88106 16.4773 0 29.8811 13.40376 29.8811 29.88106 0 4.0581-.8197 7.9313-2.289 11.4646h-55.1841c-1.4743-3.5333-2.289-7.4065-2.289-11.4646zm158.6258 11.4646h-99.4085c1.3944-3.5533 2.169-7.4215 2.169-11.4646 0-17.3719-14.1334-31.5053-31.5053-31.5053-17.3718 0-31.5052 14.1334-31.5052 31.5053 0 4.0431.7746 7.9113 2.169 11.4646h-12.869v1.6242h13.5587c4.9776 10.855 15.9425 18.4164 28.6465 18.4164 12.7041 0 23.664-7.5614 28.6466-18.4164h100.0982z"/><path d="m170.935 52.6316h-1.624v3.0236h1.624z"/><path d="m170.945 59.1865h-1.624v19.381h1.624z"/><path d="m140.699 78.5695 6.547-7.1267 6.647 7.1267h2.219l-7.761-8.3261 2.873-3.1286 10.675 11.4547h2.219l-11.794-12.6541 12.204-13.2838h-2.204l-14.123 15.3728v-15.3728h-1.624v17.142l-4.258 4.6328v-21.7748h-1.625v25.9379z"/></g></svg>

<svg width="171" height="79" viewBox="0 0 171 79" fill="none" xmlns="http://www.w3.org/2000/svg" class="max-w-[76px] xl:max-w-none h-auto"><path d="M96.5503 30.0886H97.4499V34.1767H99.9887V34.9414H96.5503V30.0886Z" fill="#FFF"></path><path d="M102.986 33.2272V34.9414H102.082V33.2421L100.178 30.0886H101.142L102.562 32.4525L103.996 30.0886H104.881L102.986 33.2272Z" fill="#FFF"></path><path d="M109.933 32.5223C109.933 31.5327 109.204 30.8181 108.229 30.8181C107.254 30.8181 106.525 31.5327 106.525 32.5223C106.525 33.5118 107.254 34.2265 108.229 34.2265C109.204 34.2265 109.933 33.5118 109.933 32.5223ZM105.615 32.5223C105.615 31.0879 106.725 30.0284 108.229 30.0284C109.733 30.0284 110.843 31.0829 110.843 32.5223C110.843 33.9616 109.733 35.0161 108.229 35.0161C106.725 35.0161 105.615 33.9566 105.615 32.5223Z" fill="#FFF"></path><path d="M116.805 30.0886V34.9414H116.066L113.387 31.6579V34.9414H112.492V30.0886H113.237L115.911 33.3771V30.0886H116.805Z" fill="#FFF"></path><path d="M121.039 32.833C121.039 32.3982 121.378 32.0834 121.778 32.0834C122.178 32.0834 122.528 32.3932 122.528 32.833C122.528 33.2728 122.183 33.5877 121.778 33.5877C121.373 33.5877 121.039 33.2778 121.039 32.833Z" fill="#FFF"></path><path d="M130.194 31.8178C130.194 31.2081 129.784 30.8533 128.994 30.8533H127.94V32.7824H128.994C129.784 32.7824 130.194 32.4275 130.194 31.8178ZM131.104 31.8178C131.104 32.8873 130.314 33.542 129.039 33.542H127.945V34.9414H127.045V30.0886H129.044C130.319 30.0886 131.109 30.7383 131.109 31.8128" fill="#FFF"></path><path d="M135.302 33.1122L134.387 30.9932L133.478 33.1122H135.302ZM135.602 33.8169H133.178L132.698 34.9414H131.769L133.953 30.0886H134.837L137.026 34.9414H136.082L135.597 33.8169H135.602Z" fill="#FFF"></path><path d="M140.299 30.8533H139.245V32.7874H140.299C141.089 32.7874 141.499 32.4275 141.499 31.8178C141.499 31.2081 141.089 30.8533 140.299 30.8533ZM141.519 34.9414L140.529 33.522C140.469 33.527 140.404 33.527 140.344 33.527H139.25V34.9414H138.35V30.0886H140.344C141.619 30.0886 142.408 30.7383 142.408 31.8128C142.408 32.5475 142.033 33.0872 141.374 33.3471L142.488 34.9414H141.519Z" fill="#FFF"></path><path d="M145.022 30.8533H143.413V30.0886H147.531V30.8533H145.922V34.9414H145.022V30.8533Z" fill="#FFF"></path><path d="M150.295 32.6547H148.391V33.3743H150.295V32.6547Z" fill="#FFF"></path><path d="M154.108 34.1798C155.187 34.1798 155.887 33.5201 155.887 32.5155C155.887 31.511 155.187 30.8513 154.108 30.8513H152.928V34.1798H154.108ZM152.029 30.0917H154.148C155.722 30.0917 156.797 31.0612 156.797 32.5155C156.797 33.9699 155.722 34.9394 154.148 34.9394H152.029V30.0867V30.0917Z" fill="#FFF"></path><path d="M159.351 30.0886H158.451V34.9414H159.351V30.0886Z" fill="#FFF"></path><path d="M164.993 34.1867V34.9414H161.354V30.0886H164.898V30.8433H162.254V32.1077H164.598V32.8473H162.254V34.1867H164.993Z" fill="#FFF"></path><path d="M166.652 32.8273V30.0886H167.551V32.7924C167.551 33.7919 168.001 34.2217 168.786 34.2217C169.571 34.2217 170.015 33.7919 170.015 32.7924V30.0886H170.905V32.8273C170.905 34.2417 170.105 35.0113 168.781 35.0113C167.456 35.0113 166.652 34.2417 166.652 32.8273Z" fill="#FFF"></path><path d="M42.2052 61.3863C30.4208 61.3863 20.2105 54.5295 15.3478 44.5941H69.0577C64.195 54.5295 53.9847 61.3863 42.2003 61.3863M12.3242 31.5053C12.3242 15.028 25.728 1.62424 42.2052 1.62424C58.6825 1.62424 72.0863 15.028 72.0863 31.5053C72.0863 35.5634 71.2666 39.4366 69.7973 42.9699H14.6132C13.1389 39.4366 12.3242 35.5634 12.3242 31.5053ZM170.95 42.9699H71.5415C72.9359 39.4166 73.7105 35.5484 73.7105 31.5053C73.7105 14.1334 59.5771 0 42.2052 0C24.8334 0 10.7 14.1334 10.7 31.5053C10.7 35.5484 11.4746 39.4166 12.869 42.9699H0V44.5941H13.5587C18.5363 55.4491 29.5012 63.0105 42.2052 63.0105C54.9093 63.0105 65.8692 55.4491 70.8518 44.5941H170.95V42.9699Z" fill="#FFF"></path><path d="M170.935 52.6316H169.311V55.6552H170.935V52.6316Z" fill="#FFF"></path><path d="M170.945 59.1865H169.321V78.5675H170.945V59.1865Z" fill="#FFF"></path><path d="M140.699 78.5695L147.246 71.4428L153.893 78.5695H156.112L148.351 70.2434L151.224 67.1148L161.899 78.5695H164.118L152.324 65.9154L164.528 52.6316H162.324L148.201 68.0044V52.6316H146.577V69.7736L142.319 74.4064V52.6316H140.694V78.5695H140.699Z" fill="#FFF"></path></svg>
